X:3366
T:La Baigneuse
O:england
M:3/4
L:1/4
K:C
efg|cde|ABd|c2B|def|dag|1 fdc|e3:|2 fAB|c3||
|:GAG|f3|edc|e3|dcB|dcB|AcB|\
A2G|GAG|f3|edc|e3|dcB|Aag|fAB|c3:|


